svg/UnitedNations-Flags/flag-gy.svg

<?xml version="1.0" encoding="UTF-8" standalone="no"?>
<!-- Created with Inkscape (http://www.inkscape.org/) --><svg height="256" id="svg1" inkscape:output_extension="org.inkscape.output.svg.inkscape" inkscape:version="0.46" sodipodi:docname="Flag_of_Guyana.svg" sodipodi:version="0.32" version="1.0" width="256" x="0.0000000" xmlns="http://www.w3.org/2000/svg" xmlns:cc="http://creativecommons.org/ns#" xmlns:dc="http://purl.org/dc/elements/1.1/" xmlns:inkscape="http://www.inkscape.org/namespaces/inkscape" xmlns:rdf="http://www.w3.org/1999/02/22-rdf-syntax-ns#" xmlns:sodipodi="http://sodipodi.sourceforge.net/DTD/sodipodi-0.dtd" xmlns:svg="http://www.w3.org/2000/svg" y="0.0000000">
  <metadata>
    <rdf:RDF xmlns:cc="http://web.resource.org/cc/" xmlns:dc="http://purl.org/dc/elements/1.1/" xmlns:rdf="http://www.w3.org/1999/02/22-rdf-syntax-ns#">
      <cc:Work rdf:about="">
        <dc:title></dc:title>
        <dc:description></dc:description>
        <dc:subject>
          <rdf:Bag>
            <rdf:li>unsorted</rdf:li>
          </rdf:Bag>
        </dc:subject>
        <dc:publisher>
          <cc:Agent rdf:about="http://www.openclipart.org/">
            <dc:title>Open Clip Art Library, Source: Wikimedia Commons, Source: Wikimedia Commons, Source: Wikimedia Commons, Source: Wikimedia Commons</dc:title>
          </cc:Agent>
        </dc:publisher>
        <dc:creator>
          <cc:Agent>
            <dc:title></dc:title>
          </cc:Agent>
        </dc:creator>
        <dc:rights>
          <cc:Agent>
            <dc:title></dc:title>
          </cc:Agent>
        </dc:rights>
        <dc:date></dc:date>
        <dc:format>image/svg+xml</dc:format>
        <dc:type rdf:resource="http://purl.org/dc/dcmitype/StillImage"/>
        <cc:license rdf:resource="http://en.wikipedia.org/wiki/Public_domain"/>
        <dc:language>en</dc:language>
      </cc:Work>
    </rdf:RDF>
  </metadata>
  <sodipodi:namedview bordercolor="#666666" borderopacity="1.0" gridtolerance="10.0" guidetolerance="10.0" id="base" inkscape:current-layer="svg1" inkscape:cx="250" inkscape:cy="150" inkscape:pageopacity="0.0" inkscape:pageshadow="2" inkscape:window-height="740" inkscape:window-width="796" inkscape:window-x="20" inkscape:window-y="170" inkscape:zoom="1.118" objecttolerance="10.0" pagecolor="#ffffff" showgrid="false"/>
  <defs id="defs3">
    <inkscape:perspective id="perspective4000" inkscape:persp3d-origin="250 : 100 : 1" inkscape:vp_x="0 : 150 : 1" inkscape:vp_y="0 : 1000 : 0" inkscape:vp_z="500 : 150 : 1" sodipodi:type="inkscape:persp3d"/>
  </defs>
  <g id="layer1" transform="matrix(0.512,0,0,0.512,0,51.40001)">
    <rect height="300" id="rect1061" style="fill:#009e49;fill-opacity:1;stroke:none;stroke-width:2.5;stroke-linecap:butt;stroke-linejoin:miter;stroke-miterlimit:4;stroke-opacity:1" transform="translate(-125,-377.3622)" width="500" x="125" y="377.36218"/>
    <path d="M 125,377.36218 L 625,527.36218 L 125,677.36218 L 125,377.36218 z" id="path1683" style="fill:#ffffff;fill-opacity:1;fill-rule:evenodd;stroke:none;stroke-width:0.25pt;stroke-linecap:butt;stroke-linejoin:miter;stroke-opacity:1" transform="translate(-125,-377.3622)"/>
    <path d="M 125,390.41218 L 581.5,527.36218 L 125,664.31218 L 125,390.41218 z" id="path4172" style="fill:#fcd116;fill-opacity:1;fill-rule:evenodd;stroke:none;stroke-width:0.25pt;stroke-linecap:butt;stroke-linejoin:miter;stroke-opacity:1" transform="translate(-125,-377.3622)"/>
    <path d="M 125,377.36218 L 375,527.36218 L 125,677.36218 L 125,377.36218 z" id="path2307" style="fill:#000000;fill-opacity:1;fill-rule:evenodd;stroke:none;stroke-width:0.25pt;stroke-linecap:butt;stroke-linejoin:miter;stroke-opacity:1" transform="translate(-125,-377.3622)"/>
    <path d="M 125,394.85593 L 345.85,527.36218 L 125,659.86843 L 125,394.85593 z" id="path3550" style="fill:#ce1126;fill-opacity:1;fill-rule:evenodd;stroke:none;stroke-width:0.25pt;stroke-linecap:butt;stroke-linejoin:miter;stroke-opacity:1" transform="translate(-125,-377.3622)"/>
  </g>
</svg>

<svg xmlns="http://www.w3.org/2000/svg" viewBox="0 0 256 256"><g transform="matrix(.512 0 0 .512 0 51.4)"><path fill="#009e49" stroke-width="1" d="m0 0h500v300h-500z"/><g fill-rule="evenodd" transform="translate(-125-377.36)"><path d="m125 377.36l500 150-500 150v-300" fill="#fff"/><path d="m125 390.41l456.5 136.95-456.5 136.95v-273.9" fill="#fcd116"/><path d="m125 377.36l250 150-250 150v-300"/><path d="m125 394.86l220.85 132.51-220.85 132.51v-265.01" fill="#ce1126"/></g></g></svg>
